TPFinal/static/svgs/solid/align-right.svg

<svg xmlns="http://www.w3.org/2000/svg" viewBox="0 0 448 512"><!--! Font Awesome Free 6.2.1 by @fontawesome - https://fontawesome.com License - https://fontawesome.com/license/free (Icons: CC BY 4.0, Fonts: SIL OFL 1.1, Code: MIT License) Copyright 2022 Fonticons, Inc. --><path d="M448 64c0 17.7-14.3 32-32 32H192c-17.7 0-32-14.3-32-32s14.3-32 32-32H416c17.7 0 32 14.3 32 32zm0 256c0 17.7-14.3 32-32 32H192c-17.7 0-32-14.3-32-32s14.3-32 32-32H416c17.7 0 32 14.3 32 32zM0 192c0-17.7 14.3-32 32-32H416c17.7 0 32 14.3 32 32s-14.3 32-32 32H32c-17.7 0-32-14.3-32-32zM448 448c0 17.7-14.3 32-32 32H32c-17.7 0-32-14.3-32-32s14.3-32 32-32H416c17.7 0 32 14.3 32 32z"/></svg>

<svg xmlns="http://www.w3.org/2000/svg" viewBox="0 0 448 512"><!--! Font Awesome Free 6.1.1 by @fontawesome - https://fontawesome.com License - https://fontawesome.com/license/free (Icons: CC BY 4.0, Fonts: SIL OFL 1.1, Code: MIT License) Copyright 2022 Fonticons, Inc. --><path d="M416 96H192C174.3 96 160 81.67 160 64C160 46.33 174.3 32 192 32H416C433.7 32 448 46.33 448 64C448 81.67 433.7 96 416 96zM416 352H192C174.3 352 160 337.7 160 320C160 302.3 174.3 288 192 288H416C433.7 288 448 302.3 448 320C448 337.7 433.7 352 416 352zM0 192C0 174.3 14.33 160 32 160H416C433.7 160 448 174.3 448 192C448 209.7 433.7 224 416 224H32C14.33 224 0 209.7 0 192zM416 480H32C14.33 480 0 465.7 0 448C0 430.3 14.33 416 32 416H416C433.7 416 448 430.3 448 448C448 465.7 433.7 480 416 480z"/></svg>
